X:1
T:Over the Tide
T:Over the Tide
T:Pete Fagan
T:Pete Fagan, 1908
T:Public Domain Courtesy of the Cyber Hymnal™
T:Public Domain Courtesy of the Cyber Hymnal™
C:Pete Fagan
Z:Public Domain
Z:Courtesy of the Cyber Hymnal™
%%score 1 ( 2 3 )
L:1/8
Q:1/4=87
M:6/8
K:Bb
V:1 treble 
V:2 bass 
V:3 bass 
V:1
 !fermata![DB]>[DB][DB] [Ec][DB][EG] | [DF][DG][EB] [DB]3 | !fermata![Fd]>[Fc][FB] [DB][DA][DB] | %3
w: 1.~O- ver the tide of life’s|won- der- ful sea,|Is a bright man- sion that’s|
w: 2.~Soon in that beau- ti- ful|clime I shall dwell,|And of its won- ders for-|
w: 3.~Tho’ for a while on this|earth I may be,|Tossed like a ship by a|
 [=Ed][Ec][EB] [Fc]3 | !fermata![DB]>[DB][DB] [Ec][EB][EG] | [DF][DG][EB] [DB]3 | %6
w: wait- ing for me;|And of its glor- ies, I|soon shall be- hold,|
w: ev- er will tell;|There’ll be no doubt- ings or|fear- ings for me,|
w: storm on the sea;|Trust- ing my Sav- ior as|pi- lot and guide,|
 !fermata![Fd]>[Ec][DB] [Ec][DB][Ec] | [DB]6 ||"^Refrain" !fermata![Fd]>[^E^c][Fd] [Bf][Bg][Fd] | %9
w: Trea- sures more pre- cious than|gold.||
w: O- ver life’s won- der- ful|sea.|Soon I shall an- chor on|
w: O- ver this trou- ble- some|sea.||
 [Ec][DB][Fc] [Fd]3 | !fermata![GB]>[DB][DB] [Ec][DB][Fc] | %11
w: ||
w: Hea- ven’s bright shore,|And from all sor- rows be|
w: ||
 ([Fd]3 [DB]3) [DB]>[DB][DB][Ec][EB][EG] | [DF][DG][EB] [DB]3 | %13
w: ||
w: free; * There shall no trou- ble or|death ev- er come,|
w: ||
 !fermata![Fd]>[Ec][DB] [Ec][DB][Ec] | [DB]6 |] %15
w: ||
w: And with my Sav- ior I’ll|be.|
w: ||
V:2
 [B,,F,]>[B,,F,][B,,F,] [E,G,][E,G,][E,B,] | [B,,B,][B,,B,][B,,G,] [B,,F,]3 | %2
 !fermata![B,,B,]>[C,A,][D,B,] [G,B,][G,B,][G,B,] | [C,B,][C,A,][C,G,] [F,A,]3 | %4
 !fermata![B,,F,]>[B,,F,][B,,F,] [E,G,][E,G,][E,B,] | [B,,B,][B,,B,][B,,G,] [B,,F,]3 | %6
 !fermata![B,,B,]>[F,A,][G,B,] [F,A,]F,F, | [B,,F,]6 || B,>B,B, [B,D][B,D]B, | %9
 [F,A,][G,B,][F,A,] B,3 | !fermata![G,B,]>[G,B,][G,B,] [F,A,][G,B,][F,A,] | %11
 [B,,B,]6 !fermata![B,,F,]>[B,,F,][B,,F,][E,G,][E,G,][E,B,] | [B,,B,][B,,B,][B,,G,] [B,,F,]3 | %13
 B,>[F,A,][G,B,] [F,A,]F,F, | [B,,F,]6 |] %15
V:3
 x6 | x6 | x6 | x6 | x6 | x6 | x4 F,F, | x6 || B,>B,B, x B, x | x3 B,3 | x6 | x12 | x6 | %13
 B,3/2 x F,F, x3/2 | x6 |] %15

